X:18717
T:White Cock-aid. JWDM.38
T:White Cockade. JWDM.38
M:4/4
L:1/8
S:J.Winder MS,Wyresdale,Lancs.,1789
R:Scots measure
O:England
A:Lancashire
Z:vmp.Taz Tarry
K:G
g2|d2 c-B cBAG|B2B2B2g2|d2 c-B cBAG|B2A2A2G-A|
B2B2 cBAG|!G2G2g2f-g|a2g-f g2 f-e|d2B2B2:||
:B-c|d2B2g2B-c|d2B2B2g2|!d2B2g2f-g|a2A2A2G-A|
B2B2 cBAB|G2G2g2f-g|a2g-f g2 f-e|d2B2B2:|]


